svgs/duotone/door-closed.svg

<svg xmlns="http://www.w3.org/2000/svg" viewBox="0 0 576 512"><!-- Font Awesome Pro 6.0.0-alpha2 by @fontawesome - https://fontawesome.com License - https://fontawesome.com/license (Commercial License) --><defs><style>.fa-secondary{opacity:.4}</style></defs><path d="M432 0H144C117.5 0 96 22.75 96 50.75V512H480V50.75C480 22.75 458.5 0 432 0ZM384 288C366.375 288 352 273.625 352 256S366.375 224 384 224S416 238.375 416 256S401.625 288 384 288Z" class="fa-secondary"/><path d="M0 464V496C0 504.875 7.125 512 16 512H96V448H16C7.125 448 0 455.125 0 464ZM560 448H480V512H560C568.875 512 576 504.875 576 496V464C576 455.125 568.875 448 560 448ZM384 224C366.375 224 352 238.375 352 256S366.375 288 384 288S416 273.625 416 256S401.625 224 384 224Z" class="fa-primary"/></svg>

<svg xmlns="http://www.w3.org/2000/svg" viewBox="0 0 576 512"><!--! Font Awesome Pro 6.3.0 by @fontawesome - https://fontawesome.com License - https://fontawesome.com/license (Commercial License) Copyright 2023 Fonticons, Inc. --><defs><style>.fa-secondary{opacity:.4}</style></defs><path class="fa-primary" d="M0 464v32C0 504.9 7.125 512 16 512H96v-64H16C7.125 448 0 455.1 0 464zM560 448H480v64h80c8.875 0 16-7.125 16-16v-32C576 455.1 568.9 448 560 448zM384 224c-17.62 0-32 14.38-32 32s14.38 32 32 32s32-14.38 32-32S401.6 224 384 224z"/><path class="fa-secondary" d="M432 0h-288C117.5 0 96 22.75 96 50.75V512h384V50.75C480 22.75 458.5 0 432 0zM384 288c-17.62 0-32-14.38-32-32s14.38-32 32-32s32 14.38 32 32S401.6 288 384 288z"/></svg>
